X:406
T: Verzweiflung (126b), S. 287
N: T0294
O: Luxemburg
S: Singendes Volk, Esch-Alzette 1937 posth.]
N: Heffingen, fff Anna Kimmel, 12.3.1933
N: (126c)- Grevenmacher fff Wilhelm Weins, Esch-Alzette, 1915
N: (126d)- Junglinster, hhh Vater des Verfassers
R: Liebeslieder]
M: 4/4
L: 1/8
K: G
D2 | B2AGGFED | DBG2z2
GA | B2BBB2AB | c2z4
cB | ADDdddcc | B2z4
dd | dBBdd2cB | c2z4
cB | ADDdddcc | B2z4

